src/icons/twitter.svg

<svg xmlns="http://www.w3.org/2000/svg" xml:space="preserve" style="fill-rule:evenodd;clip-rule:evenodd;stroke-linejoin:round;stroke-miterlimit:2" viewBox="0 0 681 681"><path d="M221.856 596.167c240.932 0 372.688-199.605 372.688-372.688 0-5.669-.117-11.314-.371-16.929a266.6 266.6 0 0 0 65.339-67.83c-23.469 10.437-48.73 17.453-75.221 20.627 27.041-16.223 47.805-41.874 57.597-72.453a262.7 262.7 0 0 1-83.174 31.793c-23.903-25.46-57.937-41.382-95.617-41.382-72.332 0-130.995 58.659-130.995 130.967 0 10.284 1.152 20.279 3.397 29.868-108.864-5.478-205.403-57.597-270-136.854-11.244 19.353-17.733 41.842-17.733 65.838 0 45.439 23.125 85.564 58.287 109.029-21.489-.66-41.674-6.56-59.322-16.379-.02.551-.02 1.085-.02 1.671 0 63.438 45.15 116.404 105.093 128.406a131.5 131.5 0 0 1-34.541 4.607c-8.426 0-16.641-.828-24.621-2.362 16.675 52.044 65.034 89.916 122.366 90.978-44.834 35.139-101.31 56.071-162.69 56.071-10.557 0-20.994-.606-31.246-1.816 57.971 37.158 126.808 58.842 200.788 58.842" style="fill:#fff;fill-rule:nonzero"/></svg>

<?xml version="1.0" encoding="UTF-8" standalone="no"?>
<!DOCTYPE svg PUBLIC "-//W3C//DTD SVG 1.1//EN" "http://www.w3.org/Graphics/SVG/1.1/DTD/svg11.dtd">
<svg width="100%" height="100%" viewBox="0 0 681 681" version="1.1" xmlns="http://www.w3.org/2000/svg" xmlns:xlink="http://www.w3.org/1999/xlink" xml:space="preserve" xmlns:serif="http://www.serif.com/" style="fill-rule:evenodd;clip-rule:evenodd;stroke-linejoin:round;stroke-miterlimit:2;">
    <path d="M221.856,596.167C462.788,596.167 594.544,396.562 594.544,223.479C594.544,217.81 594.427,212.165 594.173,206.55C619.746,188.059 641.974,164.985 659.512,138.72C636.043,149.157 610.782,156.173 584.291,159.347C611.332,143.124 632.096,117.473 641.888,86.894C616.58,101.898 588.551,112.799 558.714,118.687C534.811,93.227 500.777,77.305 463.097,77.305C390.765,77.305 332.102,135.964 332.102,208.272C332.102,218.556 333.254,228.551 335.499,238.14C226.635,232.662 130.096,180.543 65.499,101.286C54.255,120.639 47.766,143.128 47.766,167.124C47.766,212.563 70.891,252.688 106.053,276.153C84.564,275.493 64.379,269.593 46.731,259.774C46.711,260.325 46.711,260.859 46.711,261.445C46.711,324.883 91.861,377.849 151.804,389.851C140.794,392.845 129.21,394.458 117.263,394.458C108.837,394.458 100.622,393.63 92.642,392.096C109.317,444.14 157.676,482.012 215.008,483.074C170.174,518.213 113.698,539.145 52.318,539.145C41.761,539.145 31.324,538.539 21.072,537.329C79.043,574.487 147.88,596.171 221.86,596.171" style="fill:white;fill-rule:nonzero;"/>
</svg>
